src/assets/icons/tab-bar/check-in.svg

<?xml version="1.0" encoding="UTF-8"?>
<svg width="32px" height="24px" viewBox="0 0 32 24" version="1.1" xmlns="http://www.w3.org/2000/svg" xmlns:xlink="http://www.w3.org/1999/xlink">
    <title>tab-check-in</title>
    <g id="tab-check-in" stroke="none" stroke-width="1" fill="none" fill-rule="evenodd">
        <path d="M17.3808243,11 L18.7980804,13.7253119 C18.871755,13.8670055 19.00307,13.9642529 19.1527341,13.9927124 L19.2444201,14.0013389 L23,14.0013389 L16.3575246,20.8472149 C16.159786,21.0509458 15.8401802,21.0509109 15.6424754,20.8472149 L9,14.0013389 L12.2149165,14.0013389 C12.3633077,14.0013389 12.5026163,13.9341713 12.5979515,13.8202892 L12.6495966,13.7465178 L13.0386864,13.0750667 L14.4908872,15.4379182 C14.6882645,15.7591242 15.130756,15.7562519 15.331766,15.4607601 L15.3767061,15.3808092 L17.3808243,11 Z M24.5104632,12.0016478 L20.155,12.001 L17.2657764,6.44391696 L14.724,11.998 L12.9881711,9.17324077 L11.349,12.001 L7.48063804,12.0017681 C7.14862083,11.2208418 6.9854746,10.400441 7.0010144,9.5638777 C7.08281678,5.16047559 12.0714266,1.91231563 15.9948829,5.60916627 C20.6775119,1.19705522 26.7807987,6.69781243 24.5104632,12.0016478 Z" id="Combined-Shape" fill="#B2B2B2" fill-rule="nonzero"></path>
    </g>
</svg>

<svg width="32" height="24" xmlns="http://www.w3.org/2000/svg"><path d="M17.38 11l1.418 2.725a.508.508 0 00.355.268l.091.008H23l-6.642 6.846a.495.495 0 01-.716 0L9 14.001h3.215a.5.5 0 00.383-.18l.052-.074.389-.672 1.452 2.363c.197.321.64.318.84.023l.046-.08L17.38 11zm7.13 1.002L20.155 12l-2.89-5.557-2.541 5.554-1.736-2.825-1.639 2.828H7.481A5.916 5.916 0 017 9.565c.082-4.404 5.07-7.652 8.994-3.955 4.683-4.412 10.786 1.089 8.515 6.393z" fill="#B2B2B2" fill-rule="nonzero"/></svg>
